X: 61
T:Lavena
M:6/8
L:1/8
Q:120
R:Jig
K:DAeol
d|d2d ^c>=Bc|d2d A2d|d3 ^c>=Bc|d3 A2B|B>dc B>cB|A>BA G>FE|F>GA G>AF|E3 D
2||

